X:1
T:Disney, 87.87 D
T:Disney, 87.87 D
T:Jacob Finley Disney, 1880
T:Public Domain Courtesy of the Cyber Hymnal™
C:Jacob Finley Disney, 1880
Z:Public Domain
Z:Courtesy of the Cyber Hymnal™
%%score ( 1 2 ) ( 3 4 )
L:1/8
Q:1/4=95
M:3/4
K:Bb
V:1 treble 
V:2 treble 
V:3 bass 
V:4 bass 
V:1
 [B,D][CE] | [DF]2 [DB]2 [Fd][^Fc] | [GB]2 [EG]2 [GB][EG] | [DF][DB] [Fd]2 [FB]2 | %4
 [Fc]4 [B,D][CE] | [DF]2 [DB]2 [Fd][^Fc] | [GB]2 [EG]2 [GB][EG] | [DF][DB] [CA]2 [Ec]2 | %8
 [DB]4 [EA][DB] | c2 [Fc]2 [FB][Fc] | [Fd]2 [FB]2 [EA][DB] | [Cc][DB] [CA]2 [=EG]2 | F4 [B,D][CE] | %13
 [DF]2 [DB]2 [Fd][^Fc] | [GB]2 [EG]2 [GB][EG] | [DF][DB] [CA]2 [Ec]2 | [DB]4 |] %17
V:2
 x2 | x6 | x6 | x6 | x6 | x6 | x6 | x6 | x6 | (CF) x4 | x6 | x6 | F4 x2 | x6 | x6 | x6 | x4 |] %17
V:3
 [B,,B,][B,,B,] | [B,,B,]2 [B,,B,]2 [B,,B,][D,A,] | [E,G,]2 [E,B,]2 [E,B,][E,B,] | %3
 [B,,B,][B,,B,] [B,,B,]2 [D,B,]2 | [F,A,]4 [B,,B,][B,,B,] | [B,,B,]2 [B,,B,]2 [B,,B,][D,A,] | %6
 [E,G,]2 [E,B,]2 [E,B,][E,B,] | [F,B,]F, F,2 [F,A,]2 | [B,,B,]4 [F,C][F,B,] | %9
 [F,A,]2 A,2 [D,B,][F,A,] | B,2 [B,,D]2 [F,C][F,B,] | [F,A,][B,,F,] [C,F,]2 [C,B,]2 | %12
 [F,A,]4 [B,,B,][B,,B,] | [B,,B,]2 [B,,B,]2 [B,,B,][D,A,] | [E,G,]2 [E,B,]2 [E,B,][E,B,] | %15
 [F,B,]F, F,2 [F,A,]2 | [B,,B,]4 |] %17
V:4
 x2 | x6 | x6 | x6 | x6 | x6 | x6 | x F, F,2 x2 | x6 | x2 (F,E,) x2 | B,2 x4 | x6 | x6 | x6 | x6 | %15
 x F, F,2 x2 | x4 |] %17

